X:1
T:When She Got There
M:3/4
L:1/4
K:F
 G| B A G| B c d| c B A| A G d| f e d| f g a| g3/2 f/2 e| d z G| B A G|\
 B c d| c- B A| A G d| f e d| f g a| g f e| d3| z z d3.99999962500005/11.9999985000002 e3.99999962500005/11.9999985000002 f3.99999962500005/11.9999985000002|\
 f e d| f g a| g d B| B G G/2G/2| G B d| e c A| A G G| G2||

